X:1
T:Magnificat - Anerio
T:#
%%score [ 1 2 3 4 ]
L:1/8
Q:1/4=130
M:none
K:A
V:1 treble nm="Soprano"
V:2 treble nm="Alto"
V:3 treble-8 nm="Tenor"
V:4 bass nm="Bass"
V:1
 x2 x4 x4 x4 ||"^Felice Anerio\n(1560-1614)""^Magnificat"[Q:1/4=200] z8 d8- | d4 d4 d8 | d8 c8 | %4
w: |A\-|* ni- ma|me- a|
 (A6 B2 c2 B2 B4- |[Q:1/4=200][Q:1/4=200][Q:1/4=200][Q:1/4=200] B4 ^A4 B8 | B8 ^A4 B4 || %7
w: Do\- * * * *|* mi- num:|Et ex- ul-|
[M:3/2] B8 B4 | B6 B2 A4 | c8 c4 | A4 G4 ^A4 | B8 A4 |[M:3/2] A6 A2 B4 || c2 d4 c2) d4 f4 | %14
w: ta- vit|spi- ri- tus|me- us,|et ex- ul-|ta- vit|spi- ri- tus|me\- * * us in|
 (f6 e2 d8) | d4 d8 d4 | c8 B4 B4- | B4 B4 B4 B4- | B4 (^A2 G2 A8) | B8 || d8 c4 ^d4 | e8 d4 c4 | %22
w: De\- * *|o sa- lu-|ta- ri, sa\-|* lu- ta- ri|* me\- * *|o.|Qui- a re-|spe- xit hu-|
 c4 c4 B8 | A4 A4 G4 A4 | e8 A8- | A8 z4 d4- | d2 c2 B4 ^A4 A4 | B2 B2 A4 G2 A2 A4 | A8 G8 | %29
w: mi- li- ta-|tem an- cil- lae|su- ae:|* ec\-|* ce e- nim ex|hoc be- a- tam me di-|cent o-|
 G4 G8 G4 | (B6 c2 d8) | c8 c8- | c8 c4 A4- | A2 A2 B4 B4 B4 | B2 (c4 B2) c4 c4 | d4 c4 c4 c4 | %36
w: mnes ge- ne-|ra\- * *|ti- o\-|* nes. Qui\-|* a fe- cit mi-|hi ma\- * gna, qui|po- tens est, et|
 d6 d2 c4 B4- | B4 ^A4 B4 B4- | B4 B4 A4 B4 | c6 c2 c8 | d8 c4 c4- | c4 c4 e4 c4 | B4 B8 B4 | %43
w: san- ctum no- men|* e- ius. Et|* mi- se- ri-|cor- di- a|e- ius a|* pro- ge- ni-|e in pro-|
 A4 B4 c4 c4 | c4 ^d4 e4 e2 (=d2 | c2 B2 B8 ^A4) | B8 || B8 B4 B4 | B4 B4 B8 | B8 c4 c4 | %50
w: ge- ni- es ti-|men- ti- bus e\- *||um.|Fe- cit po-|ten- ti- am|in bra- chi-|
 d4 (d8 c2 B2 | c8) d4 d4 | c4 B2 B2 ^A4 B2 B2 | B4 c2 c2 B8 | c4 c8 d4 | B2 B4 ^A2 B4 F4- | %56
w: o su\- * *|* o: di-|sper- sit su- per- bos, di-|sper- sit su- per-|bos men- te|cor- dis su- i, men\-|
 F4 G4 E2 A2 G4 | ^A8 B8 | G8 B4 B4- | B4 (^A2 G2 A8) | B16 ||[M:3/1][Q:1/4=400] d8 d8 c8 | %62
w: * te cor- dis su-|i, men-|te cor- dis|* su\- * *|i.|De- po- su-|
 B16 c8 | d16 e8 | d16 c8 |[M:3/1][Q:1/4=400][Q:1/4=400][Q:1/4=400][Q:1/4=400] d24 | d8 d8 c8 | %67
w: it po-|ten- tes|de se-|de,|et ex- al-|
 B16 ^A8 | B8 B8 ^A8 | B16 ^A8 ||[Q:1/4=200] (d6 cB A2 B2 c4- | c2 B2 A8) G4 | %72
w: ta- vit,|et ex- al-|ta- vit|hu\- * * * * *|* * * mi-|
[Q:1/4=200][Q:1/4=200][Q:1/4=200][Q:1/4=200] A8 ||[M:3/1][Q:1/4=400] c8 c8 B8 | A16 G8 | c8 c8 B8 | %76
w: les,|et ex- al-|ta- vit,|et ex- al-|
 c16 B8 ||[Q:1/4=200] (c6 BA G2 A2 B4- | B2 AG F2 G2 ^A4 B4- | B4) ^A4 B8 || B8 B4 B4 | B8 B8 | %82
w: ta- vit|hu\- * * * * *||* mi- les.|E- su- ri-|en- tes|
 c8 d8- | d4 e4 d8 | c4 c4 B6 B2 | c12 d4 | d8 c8- | c4 ^d4 (e6 =d2 | c16) | c4 A4 G4 ^A4 || %90
w: im- ple\-|* vit bo-|nis: et di- vi-|tes di-|mi- sit|* i- na\- *||nes. Su- sce- pit|
[M:3/2] x12 |[M:3/2] B6 B2 B4 | B6 B2 B4 || B16 | ^A4 A8 B4 | c8 c4 c4 | c4 c4 c8- | c4 B4 B8 | %98
w: |Is- ra- el|pu- e- rum|su-|um, re- cor-|da- tus mi-|se- ri- cor\-|* di- ae|
 A8 A8 | z4 (d4- d2 cB c4) | d8 c8 | c4 c4 e4 c4 | B4 B4 B4 c4 | d16 | c8 c8- | c4 c4 c8- | %106
w: su- ae,|su\- * * * *|ae. Si-|cut lo- cu- tus|est ad pa- tres|no-|stros, A\-|* bra- ham,|
 c4 c4 c6 B2 | ^A4 B4 A4 A4 | B6 B2 B8 | B12 B4 | B12 d4 | d6 d2 c4 B4 | c8 z8 | %113
w: * et se- mi-|ni e- ius in|sae- cu- la,|A- bra-|ham, et|se- mi- ni e-|ius|
 z4 c4 (d2 e2 f2 d2 | e6 d2 c4) c4 | ^d8 ||[M:3/1][Q:1/4=400] B12 B4 B8 | B16 B8 | c8 d8 c8 | %119
w: in sae\- * * *|* * * cu-|la.|Glo- ri- a|Pa- tri,|et Fi- li-|
 c8 A8 B8 | c16 c8 | B8 B16 || x24 | B8 z4 d4- | d2 c2 B4 A4 d4- | d2 c2 B2 B2 ^A4 A4 | %126
w: o, et Spi-|ri- tu-|i san-||cto. Si\-|* cut e- rat in|* prin- ci- pi- o, et|
 B2 d2 c4 c4 c4 | e3 d c4 d4 d4- | d4 d4 c6 c2 | B4 B6 c2 c4 | %130
w: nunc, et sem- per, et|nunc, et sem- per, et|* in sae- cu-|la sae- cu- lo-|
[Q:1/4=197] c8[Q:1/4=192] (f6[Q:1/4=190] e2 |[Q:1/4=188] d4[Q:1/4=185] c4)[Q:1/4=181] ^d8 | %132
w: rum, A\- *|* * men,|
[Q:1/4=177] (e6[Q:1/4=175] ^d[Q:1/4=174]c[Q:1/4=172] B8) |[Q:1/4=170] !fermata!B16 |] %134
w: A\- * * *|men,|
V:2
 x2 x4 x4 x4 || F6 F2 F4 (D4- | D2 C2 B,2 A,2 B,4) (F4- | F2 E2 F2 G2 A8) | z4 A8 G4 | F16 | %6
w: |A- ni- ma me\-|* * * * * a||Do- mi-|num:|
 F8 F4 F4 ||[M:3/2] =G8 F4 | F6 F2 F4 | G8 A4 | F4 ^E4 F4 | F8 F4 |[M:3/2] F6 F2 F4 || A8 A4 F4 | %14
w: Et ex- ul-|ta- vit|spi- ri- tus|me- us,|et ex- ul-|ta- vit|spi- ri- tus|me- us in|
 (F6 G2) A8- | A8 A8- | A4 A4 G8- | G8 F8 | F16 | F8 || z8 z4 B4 | G4 ^A4 B4 =A2 A2 | G4 F8 E4 | %23
w: De\- * o|* sa\-|* lu- ta\-|* ri|me-|o.|Qui-|a re- spe- xit hu-|mi- li- ta-|
 F4 F4 E4 D4 | (A,2 B,2 C2 D2 E4 F4 | E8) F4 A4- | A2 A2 F4 F4 F4 | F2 B,2 E4 E2 F2 E4 | E8 E8 | %29
w: tem an- cil- lae|su\- * * * * *|* ae: ec\-|* ce e- nim ex|hoc be- a- tam me di-|cent o-|
 E4 E8 E4 | (F6 GA B8) | A8 G8- | G8 A4 F4- | F2 F2 =G4 F4 F4 | G2 A4 F2 A8 | G4 G4 A8 | %36
w: mnes ge- ne-|ra\- * * *|ti- o\-|* nes. Qui\-|* a fe- cit mi-|hi ma- gna, qui|po- tens est,|
 F4 F2 G2 A2 A,2 B,4 | F12 F4- | F4 F4 F4 G4 | A6 A2 A4 (A4- | A2 GF G4) A4 A4- | A4 A4 B4 A4 | %42
w: et san- ctum no- men e-|ius. Et|* mi- se- ri-|cor- di- a e\-|* * * * ius a|* pro- ge- ni-|
 G4 G8 G4 | F4 G4 A4 A4 | A4 A4 G8- | G8 E8 | F8 || F8 F4 F4 | =G4 G4 F8 | G8 A4 A4 | A8 A8- | %51
w: e in pro-|ge- ni- es, ti-|men- ti- bus|* e-|um.|Fe- cit po-|ten- ti- am|in bra- chi-|o su\-|
 A8 A4 A4 | A4 F2 F2 F4 F2 F2 | G4 A2 A4 (GF G4) | A4 A8 A4 | =G2 G2 F4 F4 ^D4- | D4 E4 C2 F4 ^E2 | %57
w: * o: di-|sper- sit su- per- bos, di-|sper- sit su- per\- * *|bos men- te|cor- dis su- i, men\-|* te cor- dis su-|
 F8 F8 | E8 F4 F4 | F16 | F16 ||[M:3/1] B8 B8 A8 | =G16 G8 | A16 A8 | A8 A16 |[M:3/1] A24 | %66
w: i, men-|te cor- dis|su-|i.|De- po- su-|it po-|ten- tes|de se-|de,|
 A8 A8 A8 | F16 F8 | F8 F8 F8 | F16 F8 || (F12 E2 D2 | E4 F2 E2 D4) B,4 | E8 ||[M:3/1] A8 A8 G8 | %74
w: et ex- al-|ta- vit,|et ex- al-|ta- vit|hu\- * *|* * * * mi-|les,|et ex- al-|
 F16 E8 | A8 A8 G8 | A16 G8 || z8 (B6 AG | F16 | F8 F8 || F8 F4 F4 | =G8 F4 F4 | A12 A4 | %83
w: ta- vit,|et ex- al-|ta- vit|hu\- * *||mi- les.|E- su- ri-|en- tes im-|ple- vit|
 (B2 A2 A6 GF G4) | A4 A4 G6 G2 | A12 A4 | A12 E4 | F2 G2 A2 F2 G4) (G4- | G2 F2 F6 ^E^D E4) | %89
w: bo\- * * * * *|nis: et di- vi-|tes di-|mi- sit|i\- * * * * na\-||
 F4 F4 G4 F4 ||[M:3/2] x12 |[M:3/2] F6 F2 F4 | F6 F2 F4- || F4 (E2 D2 E8) | F4 F8 F4 | A8 A4 A4 | %96
w: nes. Su- sce- pit||Is- ra- el|pu- e- rum|* su\- * *|um, re- cor-|da- tus mi-|
 A4 A4 A8- | A4 G4 G8 | F8 F8 | A16 | A8 A8 | A4 A4 G4 F4 | F4 F4 F4 A4 | (B2 A2 A6 GF G4) | %104
w: se- ri- cor\-|* di- ae|su- ae,|su-|ae. Si-|cut lo- cu- tus|est ad pa- tres|no\- * * * * *|
 A8 A8- | A4 A4 A8- | A4 A4 A6 F2 | F4 E4 F4 F4 | F6 F2 G8 | F12 F4 | F12 B4 | B6 A2 A4 F4 | %112
w: stros, A\-|* bra- ham,|* et se- mi-|ni e- ius in|sae- cu- la,|A- bra-|ham, et|se- mi- ni e-|
 A4 E4 (F2 G2 A2 F2 | G4) ^A4 B4 F4 | (G2 A2 B2 G2 ^A4) A4 | B8 ||[M:3/1] F12 F4 F8 | =G16 F8 | %118
w: ius in sae\- * * *|* cu- la, in|sae\- * * * * cu-|la.|Glo- ri- a|Pa- tri,|
 A8 G8 G8 | A8 F8 G8 | A16 A8 | F8 =G16 || x24 | F8 z4 B4- | B2 A2 =G4 F4 A4- | A2 A2 F2 F2 F4 F4 | %126
w: et Fi- li-|o, et Spi-|ri- tu-|i san-||cto. Si\-|* cut e- rat in|* prin- ci- pi- o, et|
 F2 B2 G4 A4 A4 | G2 B4 ^A2 B4 B4- | B4 A4 A6 A2 | G4 F6 A2 G4 | ^A8 (B4 F4- | F4) F8 F4 | =G16 | %133
w: nunc, et sem- per, et|nunc, et sem- per et|* in sae- cu-|la sae- cu- lo-|rum, A\- *|* A- men,|A-|
 !fermata!F16 |] %134
w: men.|
V:3
 A2 B2 A2 d2 d2 d4 || z8 z4 f4- | f4 f4 f8 | (d6 e2 f2 e2 e4- | e4) ^d4 (e6 =d2 | c4 c4 B8 | %6
w: Ma\- * gni\- * fi- cat|A\-|* ni- ma|me\- * * * *|* a Do\- *|* mi- num:|
 d8 c4 ^d4 ||[M:3/2] e8 d4 | d6 d2 f4- | f4 ^e4 f4 | c4 c4 c4 | d8 c4 | %12
w: Et ex- ul-|ta- vit|spi- ri- tus|* me- us,|et ex- ul-|ta- vit|
[M:3/2][K:treble-8] c6 c2 d4 || e2 f2 e4) d4 d4 | (d6 e2 f8) | f4 f8 f4 | e8 e4 e4- | e4 e4 d4 d4 | %18
w: spi- ri- tus|me\- * * us in|De\- * *|o sa- lu-|ta- ri, sa\-|* lu- ta- ri|
 c16 | d8 || f8 f4 f4 | e8 f6 F2 | G4 ^A4 B8 | c8 z4 f4 | e12 d4- | d4 c4 d4 f4- | f2 e2 d4 c4 c4 | %27
w: me-|o.|Qui- a re-|spe- xit hu-|mi- li- ta-|tem an-|cil- lae|* su- ae: ec\-|* ce e- nim ex|
 ^d2 e2 c4 B2 d2 c4 | c8 B8 | B4 B8 B4 | (d6 e2 f8) | f4 (f8 ^e2 ^d2 | ^e8) f4 c4- | %33
w: hoc be- a- tam me di-|cent o-|mnes ge- ne-|ra\- * *|ti- o\- * *|* nes. Qui\-|
 c2 c2 e4 d4 d4- | d2 e2 f4 e2 c2 f4- | f4 ^e4 f4 f4 | d4 B4 e6 B2 | c8 B4 d4- | d4 d4 c4 e4 | %39
w: * a fe- cit mi\-|* hi ma- gna, qui po\-|* tens est, et|san- ctum no- men|e- ius. Et|* mi- se- ri-|
 e6 e2 e4 (f4- | f2 e2 d4) e4 e4- | e4 e4 e4 e4 | e4 e8 e4 | c4 e4 e4 e4 | e4 f4 B8 | e16 | ^d8 || %47
w: cor- di- a e\-|* * * ius a|* pro- ge- ni-|e in pro-|ge- ni- es, ti-|men- ti- bus|e-|um.|
 ^d8 d4 d4 | e4 e4 ^d8 | e8 e4 e4 | f8 e8- | e8 d4 f4 | e4 d2 d2 c4 B2 ^d2 | e4 e2 e2 e8 | %54
w: Fe- cit po-|ten- ti- am|in bra- chi-|o su\-|* o: di-|sper- sit su- per- bos, di-|sper- sit su- per-|
 e4 e8 f4 | d2 e2 c4 B4 B4- | B4 G4 A2 F2 c4 | c4 f8 B4- | B4 e8 d4 | c16 | B16 || %61
w: bos men- te|cor- dis su- i, men\-|* te cor- dis su-|i, men- te|* cor- dis|su-|i.|
[M:3/1] f8 f8 f8 | d16 e8 | f16 e8 | f8 e16 |[M:3/1][K:treble-8]"^de, et" d24 | f8 f8 e8 | d16 c8 | %68
w: De- po- su-|it po-|ten- tes|de se-||* ex- al-|ta- vit,|
 d8 d8 c8 | d16 c8 || z4 (d8 c2 B2 | c8 B6) B2 | A8 ||[M:3/1] e8 e8 e8 | c16 c8 | e8 e8 e8 | %76
w: et ex- al-|ta- vit|hu\- * *|* * mi-|les,|et ex- al-|ta- vit,|et ex- al-|
 e16 e8 || z4 (e6 dc B2 c2 | d6 cB c4 d4 | c6) c2 B8 || ^d8 d4 d4 | e8 d8 | e8 f8- | %83
w: ta- vit|hu\- * * * *||* mi- les.|E- su- ri-|en- tes|im- ple\-|
 f4 e4 (f4 e2 d2) | e4 A4 e6 e2 | e12 f4 | f8 e8 | A8 (B8 | A6 GF G8) | F4 c4 c4 c4 ||[M:3/2] x12 | %91
w: * vit bo\- * *|nis: et di- vi-|tes di-|mi- sit|i- na\-||nes. Su- sce- pit||
[M:3/2][K:treble-8] d6 d2 d4 | d6 d2 d4 || (d2 c2 B2 A2 B8) | c4 c8 d4 | e8 e4 e4 | e4 e4 e8- | %97
w: Is- ra- el|pu- e- rum|su\- * * * *|um, re- cor-|da- tus mi-|se- ri- cor\-|
 e4 e4 e8 | c8 d8 | (f8 e8) | f8 f8 | f4 f4 B4 c4 | d4 d4 d4 e4 | (f6 e2 d8) | e8 e8- | e4 e4 e8- | %106
w: * di- ae|su- ae,|su\- *|ae. Si-|cut lo- cu- tus|est ad pa- tres|no\- * *|stros, A\-|* bra- ham,|
 e4 e4 e6 d2 | c4 B4 c4 c4 | ^d2 e4 d2 e8 | d12 d4 | d12 f4 | f6 f2 e4 d4 | e4 c4 (d2 e2 f2 d2 | %113
w: * et se- mi-|ni e- ius in|sae- * cu- la,|A- bra-|ham, et|se- mi- ni e-|ius in sae\- * * *|
 e4) f4 f8 | z4 B4 f6 f2 | B8 ||[M:3/1] ^d12 d4 d8 | e16 d8 | f8 f8 ^e8 | f8 c8 e8 | e16 e8 | %121
w: * cu- la,|in sae- cu-|la.|Glo- ri- a|Pa- tri,|et Fi- li-|o, et Spi-|ri- tu-|
 ^d8 e16 || x24 | ^d8 z4 f4- | f2 f2 d4 d4 f4- | f2 e2 d2 d2 c4 c4 | d2 f4 ^e2 f4 f4 | %127
w: i san-||cto. Si-|* cut e- rat in|* prin- ci- pi- o, et|nunc, et sem- per, et|
 e2 e2 f4 B4 f4- | f4 f4 e6 e2 | e4 d6 f4 ^e2 | f4 (f6 e2 d2 c2 | B4 ^A4) B8- | B8 (e8- | %133
w: nunc, et sem- per, et|* in sae- cu-|la sae- cu- lo-|rum, A\- * * *|* * men,|* A\-|
 e4 ^d2 c2) !fermata!d8 |] %134
w: * * * men.|
V:4
 x2 x4 x4 x4 || z8 B,6 B,2 | B,4 (D6 C2 B,2 A,2 | B,8) (A,6 G,2 | F,8) (E,8 | F,6 F,2 B,,8 | %6
w: |A- ni-|ma me\- * * *|* a *|* Do\-|* mi- num;|
 B,8 F,4 B,4 ||[M:3/2] E,8 B,,4 | B,6 B,2 D4 | C8 F,4 | F,4 C,4 F,4 | B,,8 F,4 | %12
w: Et ex- ul-|ta- vit|spi- ri- tus|me- us,|et ex- ul-|ta- vit|
[M:3/2] F,6 F,2 B,4 || A,8 D,8 | z4 D,4 D,6 E,2 | F,4) (D,6 E,2 F,2 G,2 | A,8) E,8 | %17
w: spi- ri- tus|me- us|in De\- *|* o * * *|* sa-|
 E,8 B,,4 B,,4 | F,16 | B,,8 || B,8 ^A,4 B,4 | C8 B,4 F,4 | ^E,4 F,4 =G,8 | F,8 z4 D,4- | %24
w: lu- ta- ri|me-|o.|Qui- a re-|spe- xit hu-|mi- li- ta-|tem an\-|
 D,4 C,8 D,4 | A,8 D,4 D4- | D2 A,2 B,4 F,4 F,4 | B,2 G,2 A,4 E,2 D,2 A,4 | A,,8 E,8 | %29
w: * cil- lae|su- ae: ec\-|* ce e- nim ex|hoc be- a- tam me di-|cent o-|
 E,4 E,8 E,4 | B,,16 | F,8 C,8- | C,8 F,4 F,4- | F,2 F,2 E,4 B,,4 B,4- | B,2 A,2 D4 C4 A,4 | %35
w: mnes ge- ne-|ra-|ti- o\-|* nes. Qui\-|* a fe- cit mi\-|* hi ma- gna, qui|
 B,4 C4 F,4 F,4 | B,6 B,2 A,4 G,4 | F,8 B,,4 B,4- | B,4 B,4 F,4 E,4 | A,6 A,2 A,8 | B,8 A,4 A,4- | %41
w: po- tens est, et|san- ctum no- men|e- ius. Et|* mi- se- ri-|cor- di- a|e- ius a|
 A,4 A,4 G,4 A,4 | E,4 E,8 E,4 | F,4 E,4 A,4 A,4 | A,4 F,4 E,8- | E,8 C,8 | B,,8 || B,8 B,4 B,4 | %48
w: * pro- ge- ni-|e in pro-|ge- ni- es, ti-|men- ti- bus|* e-|um.|Fe- cit po-|
 E,4 E,4 B,8 | E,8 A,4 A,4 | D,8 A,8- | A,8 D,4 D4 | A,4 B,2 B,,2 F,4 B,,2 B,2 | E,4 A,2 A,,2 E,8 | %54
w: ten- ti- am|in bra- chi-|o su\-|* o: di-|sper- sit su- per- bos, di-|sper- sit su- per-|
 A,,4 A,8 F,4 | =G,2 E,2 F,4 B,,8 | z8 z8 | F,8 ^D,8 | E,8 B,,8 | F,16 | B,,16 || %61
w: bos men- te|cor- dis su- i,||men- te|cor- dis|su-|i.|
[M:3/1] B,8 B,8 F,8 | =G,16 E,8 | D,16 C,8 | D,8 A,16 |[M:3/1] D,24 | D8 D8 A,8 | B,16 F,8 | %68
w: De- po- su-|it po-|ten- tes|de se-|de,|et ex- al-|ta- vit,|
 B,,8 B,,8 F,8 | B,16 F,8 || (B,6 A,G, F,2 G,2 A,4- | A,2 G,2 F,2 C,2 D,4) E,4 | A,,8 || %73
w: et ex- al-|ta- vit|hu\- * * * * *|* * * * * mi-|les,|
[M:3/1] A,8 A,8 E,8 | F,16 C,8 | A,,8 A,,8 E,8 | A,16 E,8 || (A,6 G,F, E,2 F,2 G,2 A,2 | %78
w: et ex- al-|ta- vit,|et ex- al-|ta- vit|hu\- * * * * * *|
 B,6 A,G, F,8- | F,4) F,4 B,,8 || B,8 B,4 B,4 | E,8 B,8 | A,8 D8- | D4 C4 B,8 | A,8 z4 E,4 | %85
w: |* mi- les.|E- su- ri-|en- tes|im- ple\-|* vit bo-|nis: et|
 A,6 A,2 A,4 D,4 | (D,2 E,2 F,2 G,2 A,8) | F,8 E,8 | (F,8 C,8) | F,4 F,4 ^E,4 F,4 ||[M:3/2] x12 | %91
w: di- vi- tes di-|mi\- * * * *|sit in-|na\- *|nes. Su- sce- pit||
[M:3/2] B,,6 B,,2 B,,4 | B,6 B,2 B,4 || =G,16 | F,4 F,8 B,4 | A,8 A,4 A,4 | A,4 A,4 A,8- | %97
w: Is- ra- el|pu- e- rum|su-|um, re- cor-|da- tus mi-|se- ri- cor\-|
 A,4 E,4 E,8 | (F,6 E,2 D,2 C,2 D,4- | D,2 E,2 F,2 G,2 A,8) | D,8 F,8 | F,4 F,4 G,4 ^A,4 | %102
w: * di- ae|su\- * * * *||ae. Si-|cut lo- cu- tus|
 B,4 B,4 B,4 A,4 | (D6 C2 B,8) | A,8 A,8- | A,4 A,,4 A,,8- | A,,4 A,4 A,6 B,2 | F,4 =G,4 F,4 F,4 | %108
w: est ad pa- tres|no\- * *|stros, A\-|* bra- ham,|* et se- mi-|ni e- ius in|
 B,6 B,2 E,8 | B,12 B,,4 | B,,12 B,4 | B,6 D2 A,4 B,4 | A,8 z8 | z4 F,4 B,6 B,2 | E,8 z8 | z8 || %116
w: sae- cu- la,|A- bra-|ham, et|se- mi- ni e-|ius|in sae- cu-|la.||
[M:3/1] B,12 B,4 B,8 | E,16 B,8 | F,8 B,8 C8 | F,8 F,8 E,8 | A,16 A,8 | B,8 E,16 || x24 | %123
w: Glo- ri- a|Pa- tri,|et Fi- li-|o, et Spi-|ri- tu-|i san-||
 B,,8 z4 B,4- | B,2 F,2 =G,4 D,4 D4- | D2 A,2 B,2 B,2 F,4 F,4 | B,2 B,2 C4 F,8 | z8 z4 B,4- | %128
w: cto. Si\-|* cut e- rat in|* prin- ci- pi- o, et|nunc, et sem- per,|et|
 B,4 F,4 A,6 A,2 | E,4 B,6 F,2 C4 | F,8 (B,,6 C,2 | D,2 E,2 F,4) B,,8 | E,16 | !fermata!B,,16 |] %134
w: * in sae- cu-|la sae- cu- lo-|rum, A\- *|* * * men,|A-|men.|

